X:1
T:Title
%%score ( 1 2 3 ) { ( 4 6 7 ) | 5 }
L:1/8
M:4/4
K:F
V:1 treble nm="Grand Piano, Staff"
V:2 treble 
V:3 treble 
V:4 bass nm="Choir Pad, Hopkins, LM"
V:6 bass 
V:7 bass 
V:5 bass 
V:1
 z4 z2 c2- | c2 c4 z2 | [EA]2 D4 z2 | A2 [GB]6 | [GB]2 d2- [^Fd-]2 d2 | B2 c2- [Ec-]2 c2 | %6
 A2 f2- [Af]2 =B2- | [FB]2 [Ec]6 | [Ec]2 A2- [Ae]2 A2- | [Ac]2 [A=B]4 [GB]2- | %10
 [GB]2 G2- [Gc]2 =B2 | A2 G4- [EG]2 | [Fc]2 [Fd]4 [Ge]2 | [Ff]2 f2 c2 [FB]2 | %14
 [_EA]2 [Dd]4 [C=E]2- | [CE]2 [CF]6- | [CF]2 z2 z4 |] %17
V:2
 [CF]2 [FA]4 A2 | G2 F4- [FB]2 | z2 G6 | x8 | z2 A2 z2 G2- | G2 G2 z2 F2- | F2 F2 z2 G2 | x8 | %8
 z2 c2 z2 d2 | x8 | z2 A2 z2 F2- | F2 F4 z2 | x8 | z2 F4 z2 | x8 | x8 | x8 |] %17
V:3
 x8 | x8 | z4 z2 E2- | E2 z2 z4 | x8 | x8 | x8 | x8 | x8 | x8 | x8 | x8 | x8 | x8 | x8 | x8 | x8 |] %17
V:4
 A,2 C4 C2- | C2 F,6 | B,2[K:treble] D4 C2- | C2 D6 | D2 D4 B,2 | D2 C4 A,2 | C2 D4 D2- | D2 C6 | %8
 z8 | z2 E6[K:bass] | z8[K:treble] | z8 | z2 B,4[K:bass] z2 | A,2 C2 A,2 B,2 | C2 D2 G,2 A,2 | %15
 B,2 A,6- | A,2 z2 z4 |] %17
V:5
 F,2 F,4 F,2 | E,2 D,6 | C,2 B,,4 C,2- | C,2 G,,6 | G,2 ^F,2 D,2 G,2- | G,2 E,2 C,2 F,2- | %6
 F,2 D,4 G,2- | G,2 C,6 | C2 A,4 C2- | C2 z2 z4 | z2 F,4 A,2- | A,2 z2 z4 | A,2 z2 z4 | %13
 D,2 _E,4 D,2 | C,2 B,,4 C,2- | C,2 F,6- | F,2 z2 z4 |] %17
V:6
 x8 | x8 | x2[K:treble] x6 | x8 | x8 | x8 | x8 | x8 | E2 E4 E2- | E2 z2 z4[K:bass] | %10
 D2 C4[K:treble] C2- | C2 C6 | C2 z2[K:bass] A,2 G,2 | x8 | x8 | x8 | x8 |] %17
V:7
 x8 | x8 | x2[K:treble] x6 | x8 | x8 | x8 | x8 | x8 | x8 | z4 z2[K:bass] E,2- | %10
 E,2 z2 z4[K:treble] | x8 | x4[K:bass] x4 | x8 | x8 | x8 | x8 |] %17

